; generated by PrusaSlicer 2.7.1+MacOS-x64 on 2024-02-27 at 14:30:10 UTC


;
;
; 

; external perimeters extrusion width = 0.45mm
; perimeters extrusion width = 0.45mm
; infill extrusion width = 0.45mm
; solid infill extrusion width = 0.45mm
; top infill extrusion width = 0.40mm
; support material extrusion width = 0.35mm
; first layer extrusion width = 0.42mm

M73 P0 R85
M73 Q0 S91
M201 X1000 Y1000 Z200 E5000 ; sets maximum accelerations, mm/sec^2
M203 X200 Y200 Z12 E120 ; sets maximum feedrates, mm / sec
M204 S1250 T1250 ; sets acceleration (S) and retract acceleration (R), mm/sec^2
M205 X8.00 Y8.00 Z0.40 E4.50 ; sets the jerk limits, mm/sec
M205 S0 T0 ; sets the minimum extruding and travel feed rate, mm/sec

; printing object bearingBottom.stl id:0 copy 0
; stop printing object bearingBottom.stl id:0 copy 0

;TYPE:Custom
M862.3 P "MK3S" ; printer model check
M862.1 P0.4 ; nozzle diameter check
M115 U3.13.2 ; tell printer latest fw version
G90 ; use absolute coordinates
M83 ; extruder relative mode
M104 S215 ; set extruder temp
M140 S60 ; set bed temp
M190 S60 ; wait for bed temp
M109 S215 ; wait for extruder temp
G28 W ; home all without mesh bed level
G80 X71.8376 Y51.8359 W106.325 H106.328 ; mesh bed levelling

G1 Z0.2 F720
G1 Y-3 F1000 ; go outside print area
G92 E0
G1 X60 E9 F1000 ; intro line
G1 X100 E12.5 F1000 ; intro line
M73 P0 R84
M73 Q0 S90

G92 E0
M221 S95

; Don't change E values below. Excessive value can damage the printer.

M907 E538 ; set extruder motor current
G21 ; set units to millimeters
G90 ; use absolute coordinates
M83 ; use relative distances for extrusion
M900 K0.05 ; Filament gcode LA 1.5
M900 K30 ; Filament gcode LA 1.0

M107
;LAYER_CHANGE
;Z:0.2
;HEIGHT:0.2
;BEFORE_LAYER_CHANGE
G92 E0.0
;0.2


G1 E-.8 F2100
G1 Z.2 F720
;AFTER_LAYER_CHANGE
;0.2
G1 X84.125 Y71.294 F10800
G1 Z.2 F720
G1 E.8 F2100
M204 S800
;TYPE:Skirt/Brim
;WIDTH:0.42
G1 F1200
G1 X86.395 Y68.717 E.10768
G1 X89.098 Y66.043 E.11921
G1 X91.635 Y63.847 E.10521
G1 X93.137 Y62.674 E.05975
G1 X95.946 Y60.698 E.10768
G1 X97.558 Y59.683 E.05973
G1 X100.551 Y58 E.10766
G1 X102.258 Y57.152 E.05976
G1 X105.368 Y55.794 E.1064
G1 X107.188 Y55.106 E.06101
G1 X110.458 Y54.057 E.10767
G1 X112.299 Y53.567 E.05973
G1 X115.619 Y52.86 E.10643
G1 X117.539 Y52.551 E.06097
G1 X120.913 Y52.181 E.10642
G1 X124.712 Y52.025 E.11922
G1 X128.027 Y52.11 E.10397
G1 X129.928 Y52.253 E.05977
G1 X133.334 Y52.683 E.10764
G1 X135.21 Y53.017 E.05975
G1 X138.557 Y53.788 E.10769
G1 X140.39 Y54.308 E.05974
G1 X143.641 Y55.412 E.10765
G1 X147.15 Y56.879 E.11925
G1 X150.153 Y58.377 E.10522
G1 X151.813 Y59.312 E.05974
G1 X154.717 Y61.145 E.10767
G1 X156.274 Y62.242 E.05972
G1 X158.979 Y64.358 E.10768
G1 X160.418 Y65.607 E.05974
G1 X162.868 Y67.955 E.1064
G1 X164.203 Y69.371 E.06102
G1 X166.429 Y71.986 E.10767
G1 X167.589 Y73.497 E.05973
G1 X169.519 Y76.289 E.10642
G1 X171.426 Y79.488 E.11677
G1 X172.965 Y82.514 E.10644
G1 X173.758 Y84.29 E.06098
G1 X174.984 Y87.455 E.10642
G1 X175.583 Y89.264 E.05975
G1 X176.496 Y92.574 E.10766
G1 X176.909 Y94.434 E.05974
G1 X177.485 Y97.819 E.10766
G1 X177.709 Y99.712 E.05977
G1 X177.941 Y103.138 E.10767
G1 X177.974 Y105.043 E.05974
G1 X177.859 Y108.475 E.10767
G1 X177.485 Y112.181 E.11679
G1 X176.909 Y115.566 E.10766
G1 X176.496 Y117.426 E.05974
G1 X175.583 Y120.736 E.10766
G1 X174.984 Y122.545 E.05975
G1 X173.742 Y125.747 E.10768
G1 X172.965 Y127.486 E.05972
G1 X171.407 Y130.547 E.10769
G1 X170.458 Y132.199 E.05974
G1 X168.601 Y135.087 E.10766
G1 X167.49 Y136.636 E.05977
G1 X165.352 Y139.322 E.10764
G1 X164.091 Y140.751 E.05976
G1 X161.722 Y143.181 E.10641
G1 X160.295 Y144.504 E.06101
G1 X157.662 Y146.708 E.10766
G1 X156.141 Y147.855 E.05973
G1 X153.333 Y149.762 E.10643
G1 X151.67 Y150.772 E.06101
G1 X148.685 Y152.386 E.1064
G1 X145.296 Y153.933 E.11681
G1 X142.121 Y155.133 E.10642
G1 X140.308 Y155.716 E.05971
G1 X136.99 Y156.601 E.10767
G1 X135.126 Y157 E.05977
G1 X131.736 Y157.546 E.10766
G1 X128.027 Y157.89 E.11679
G1 X124.595 Y157.976 E.10764
G1 X122.69 Y157.927 E.05975
G1 X119.266 Y157.666 E.10767
G1 X117.375 Y157.426 E.05977
G1 X113.995 Y156.822 E.10766
G1 X112.139 Y156.393 E.05973
G1 X108.836 Y155.452 E.10768
G1 X107.032 Y154.838 E.05975
G1 X103.878 Y153.585 E.10641
G1 X102.108 Y152.777 E.06101
G1 X99.096 Y151.214 E.1064
G1 X95.913 Y149.279 E.1168
G1 X93.137 Y147.326 E.10642
G1 X91.635 Y146.153 E.05975
G1 X89.04 Y143.905 E.10765
G1 X87.635 Y142.559 E.06101
G1 X85.307 Y140.09 E.1064
G1 X84.071 Y138.64 E.05974
G1 X81.978 Y135.917 E.10768
G1 X79.911 Y132.818 E.1168
G1 X78.204 Y129.839 E.10765
G1 X77.341 Y128.14 E.05975
G1 X75.942 Y125.004 E.10767
G1 X75.254 Y123.227 E.05975
G1 X74.178 Y119.966 E.10767
G1 X73.673 Y118.129 E.05973
G1 X72.93 Y114.777 E.10765
G1 X72.612 Y112.898 E.05975
G1 X72.21 Y109.488 E.10766
G1 X72.083 Y107.586 E.05977
G1 X72.026 Y104.193 E.1064
G1 X72.091 Y102.248 E.06102
G1 X72.381 Y98.827 E.10765
G1 X72.637 Y96.939 E.05974
G1 X73.261 Y93.602 E.10644
G1 X73.714 Y91.711 E.06097
G1 X74.67 Y88.454 E.10643
G1 X75.957 Y84.959 E.11678
G1 X77.341 Y81.86 E.10642
G1 X78.204 Y80.161 E.05975
G1 X79.911 Y77.182 E.10765
G1 X80.941 Y75.578 E.05977
G1 X82.94 Y72.786 E.10767
G1 X84.088 Y71.341 E.05786
M204 S1000
;WIPE_START
G1 F8640
G1 X84.125 Y71.294 E-.01381
G1 X86.375 Y68.739 E-.78619
;WIPE_END
G1 Z.6 F720
G1 X86.164 Y73.051 F10800
G1 Z.2 F720
G1 E.8 F2100
M204 S800
G1 F1200
G1 X87.222 Y71.766 E.05219
G1 X89.602 Y69.242 E.10877
G1 X92.016 Y67.004 E.10321
G1 X93.376 Y65.865 E.05562
G1 X96.007 Y63.878 E.10338
G1 X97.459 Y62.892 E.05503
G1 X98.907 Y61.979 E.05367
G1 X101.802 Y60.352 E.10412
G1 X103.368 Y59.572 E.05485
G1 X106.412 Y58.245 E.10412
G1 X108.05 Y57.627 E.05489
G1 X111.187 Y56.619 E.10331
G1 X112.903 Y56.162 E.05568
G1 X116.125 Y55.475 E.10329
G1 X117.879 Y55.193 E.0557
G1 X121.154 Y54.834 E.1033
G1 X122.929 Y54.729 E.05575
G1 X126.223 Y54.702 E.10328
G1 X127.994 Y54.776 E.05558
G1 X131.277 Y55.08 E.10338
G1 X134.699 Y55.631 E.10868
G1 X137.909 Y56.372 E.10329
G1 X139.616 Y56.857 E.05564
G1 X142.739 Y57.919 E.10343
G1 X144.386 Y58.573 E.05556
G1 X147.385 Y59.942 E.10337
G1 X148.954 Y60.756 E.05542
G1 X151.805 Y62.424 E.10357
G1 X153.285 Y63.392 E.05545
G1 X154.673 Y64.371 E.05326
G1 X157.305 Y66.43 E.10478
G1 X158.639 Y67.589 E.05541
G1 X161.048 Y69.904 E.10476
G1 X163.277 Y72.35 E.10376
G1 X164.382 Y73.691 E.05448
G1 X165.427 Y75.052 E.0538
G1 X167.321 Y77.795 E.10452
G1 X168.234 Y79.271 E.05442
G1 X169.829 Y82.163 E.10355
G1 X170.604 Y83.753 E.05546
G1 X171.904 Y86.803 E.10395
G1 X172.51 Y88.45 E.05503
G1 X173.492 Y91.597 E.10336
G1 X173.934 Y93.315 E.05562
G1 X174.595 Y96.545 E.10337
G1 X174.862 Y98.299 E.05563
G1 X175.194 Y101.58 E.1034
G1 X175.283 Y103.35 E.05557
G1 X175.283 Y106.649 E.10344
G1 X175.194 Y108.419 E.05557
G1 X174.862 Y111.701 E.10343
G1 X174.283 Y115.115 E.10857
G1 X173.515 Y118.321 E.10337
G1 X173.015 Y120.023 E.05562
G1 X171.928 Y123.137 E.10341
G1 X171.26 Y124.779 E.05558
G1 X169.865 Y127.766 E.10337
G1 X169.043 Y129.318 E.05507
G1 X167.346 Y132.167 E.10397
G1 X166.38 Y133.615 E.05458
G1 X165.377 Y135.015 E.054
G1 X163.316 Y137.605 E.10378
G1 X162.15 Y138.928 E.05529
G1 X159.831 Y141.304 E.1041
G1 X158.559 Y142.484 E.0544
G1 X156.02 Y144.611 E.10385
G1 X154.615 Y145.672 E.0552
G1 X151.866 Y147.538 E.10417
G1 X150.395 Y148.432 E.05397
G1 X147.437 Y150.032 E.10544
G1 X145.919 Y150.757 E.05275
G1 X142.797 Y152.059 E.10606
G1 X141.209 Y152.63 E.05291
G1 X137.965 Y153.613 E.10628
G1 X136.325 Y154.022 E.053
G1 X133.014 Y154.671 E.10579
G1 X129.598 Y155.103 E.10796
G1 X126.307 Y155.296 E.10336
G1 X124.533 Y155.311 E.05562
G1 X121.24 Y155.173 E.10334
G1 X119.505 Y155.013 E.05463
G1 X117.794 Y154.795 E.05408
G1 X114.518 Y154.21 E.10434
G1 X112.82 Y153.818 E.05464
G1 X109.645 Y152.914 E.10351
G1 X107.969 Y152.344 E.05551
G1 X104.883 Y151.118 E.10412
G1 X103.292 Y150.391 E.05485
G1 X100.367 Y148.873 E.10333
G1 X98.834 Y147.976 E.05569
G1 X96.077 Y146.172 E.1033
G1 X94.644 Y145.126 E.05563
G1 X92.081 Y143.052 E.10338
G1 X90.76 Y141.868 E.05562
G1 X88.418 Y139.546 E.10341
G1 X87.224 Y138.236 E.05558
G1 X85.127 Y135.69 E.10342
G1 X83.111 Y132.874 E.10859
G1 X81.374 Y130.07 E.10342
G1 X80.521 Y128.522 E.05542
G1 X79.071 Y125.549 E.10371
G1 X78.377 Y123.923 E.05543
G1 X77.238 Y120.829 E.10337
G1 X76.719 Y119.166 E.05462
G1 X76.262 Y117.504 E.05404
G1 X75.542 Y114.255 E.10434
G1 X75.251 Y112.536 E.05466
G1 X74.864 Y109.258 E.10349
G1 X74.745 Y107.492 E.0555
G1 X74.69 Y104.171 E.10414
G1 X74.749 Y102.423 E.05484
G1 X75.026 Y99.139 E.10333
G1 X75.264 Y97.379 E.05569
G1 X75.871 Y94.134 E.10351
G1 X76.283 Y92.414 E.05545
G1 X77.211 Y89.252 E.10332
G1 X77.797 Y87.575 E.0557
G1 X79.039 Y84.523 E.10331
G1 X79.789 Y82.916 E.0556
G1 X81.333 Y80.001 E.10343
G1 X82.241 Y78.479 E.05557
G1 X84.071 Y75.734 E.10344
G1 X85.128 Y74.31 E.0556
G1 X86.126 Y73.097 E.04925
M204 S1000
G1 X86.417 Y73.337 F10800
M204 S800
G1 F1200
G1 X87.507 Y72.013 E.05377
G1 X89.865 Y69.512 E.10777
G1 X92.265 Y67.287 E.10261
G1 X93.611 Y66.16 E.05504
G1 X96.226 Y64.184 E.10277
G1 X97.663 Y63.209 E.05445
G1 X99.1 Y62.303 E.05326
G1 X101.978 Y60.685 E.10352
G1 X103.528 Y59.914 E.05428
G1 X106.555 Y58.594 E.10354
G1 X108.174 Y57.983 E.05426
G1 X111.293 Y56.981 E.10272
G1 X112.99 Y56.529 E.05506
G1 X116.195 Y55.846 E.10275
G1 X117.929 Y55.566 E.05507
G1 X121.186 Y55.209 E.10273
G1 X124.578 Y55.066 E.10645
G1 X126.217 Y55.079 E.05139
G1 X129.599 Y55.276 E.10622
G1 X132.925 Y55.697 E.10512
G1 X134.623 Y56 E.05408
G1 X137.815 Y56.737 E.10272
G1 X139.503 Y57.217 E.05502
G1 X142.609 Y58.272 E.10285
G1 X144.238 Y58.92 E.05497
G1 X147.22 Y60.281 E.10278
G1 X148.772 Y61.087 E.05483
G1 X151.607 Y62.744 E.10296
G1 X153.071 Y63.702 E.05486
G1 X154.448 Y64.673 E.05283
G1 X157.06 Y66.717 E.10399
G1 X159.586 Y68.983 E.1064
G1 X160.776 Y70.165 E.05259
G1 X162.992 Y72.597 E.10316
G1 X164.085 Y73.923 E.05388
G1 X166.082 Y76.616 E.10512
G1 X167.002 Y77.996 E.052
G1 X168.721 Y80.879 E.10524
G1 X169.494 Y82.337 E.05174
G1 X170.929 Y85.408 E.10628
G1 X171.554 Y86.942 E.05194
G1 X172.664 Y90.117 E.10546
G1 X173.129 Y91.7 E.05173
G1 X173.921 Y94.995 E.10625
G1 X174.223 Y96.611 E.05155
G1 X174.678 Y99.962 E.10603
G1 X174.818 Y101.609 E.05183
G1 X174.933 Y104.986 E.10594
G1 X174.906 Y106.639 E.05184
G1 X174.68 Y110.024 E.10637
G1 X174.23 Y113.349 E.1052
G1 X173.914 Y115.036 E.05381
G1 X173.15 Y118.224 E.10279
G1 X172.656 Y119.907 E.055
G1 X171.575 Y123.004 E.10285
G1 X170.914 Y124.628 E.05498
G1 X169.527 Y127.598 E.10278
G1 X168.715 Y129.133 E.05445
G1 X167.027 Y131.965 E.10337
G1 X166.068 Y133.404 E.05422
G1 X165.076 Y134.788 E.05339
G1 X163.027 Y137.363 E.10318
G1 X161.874 Y138.671 E.05467
G1 X159.568 Y141.034 E.10352
G1 X158.309 Y142.201 E.05383
G1 X155.785 Y144.315 E.10323
G1 X154.395 Y145.365 E.05462
G1 X151.667 Y147.218 E.1034
G1 X150.208 Y148.105 E.05354
G1 X147.266 Y149.696 E.10487
G1 X145.765 Y150.413 E.05216
G1 X142.661 Y151.708 E.10545
G1 X141.09 Y152.272 E.05234
G1 X137.865 Y153.25 E.10566
G1 X136.243 Y153.653 E.0524
G1 X132.951 Y154.299 E.10519
G1 X129.567 Y154.727 E.10695
G1 X126.295 Y154.919 E.10277
G1 X124.54 Y154.934 E.05503
G1 X121.265 Y154.797 E.10278
G1 X119.543 Y154.638 E.05422
G1 X117.851 Y154.422 E.05348
G1 X114.594 Y153.841 E.10373
G1 X112.914 Y153.453 E.05406
G1 X109.757 Y152.554 E.10292
G1 X108.099 Y151.991 E.0549
G1 X105.037 Y150.774 E.10331
G1 X103.457 Y150.052 E.05447
G1 X100.549 Y148.543 E.10272
G1 X99.033 Y147.656 E.05507
M73 P1 R84
G1 X96.292 Y145.861 E.10273
G1 X94.873 Y144.827 E.05505
G1 X92.325 Y142.765 E.10277
G1 X91.019 Y141.594 E.055
G1 X88.69 Y139.285 E.10283
G1 X87.509 Y137.989 E.05498
G1 X85.424 Y135.457 E.10284
G1 X83.426 Y132.668 E.10757
G1 X81.7 Y129.88 E.10281
G1 X80.855 Y128.349 E.05483
G1 X79.414 Y125.392 E.10314
G1 X78.728 Y123.784 E.05481
G1 X77.595 Y120.708 E.10278
G1 X77.08 Y119.057 E.05423
G1 X76.628 Y117.413 E.05346
G1 X75.913 Y114.189 E.10354
G1 X75.624 Y112.483 E.05425
G1 X75.239 Y109.223 E.10293
G1 X75.122 Y107.476 E.0549
G1 X75.067 Y104.175 E.10351
G1 X75.126 Y102.445 E.05427
G1 X75.401 Y99.18 E.10273
G1 X75.636 Y97.44 E.05505
G1 X76.239 Y94.213 E.10293
G1 X76.647 Y92.511 E.05488
G1 X77.57 Y89.367 E.10274
M73 Q1 S90
G1 X78.15 Y87.709 E.05507
G1 X79.384 Y84.674 E.10273
G1 X80.127 Y83.084 E.05503
G1 X81.662 Y80.186 E.10282
G1 X82.56 Y78.68 E.05498
G1 X84.379 Y75.951 E.10283
G1 X85.425 Y74.542 E.05502
G1 X86.379 Y73.383 E.04707
M204 S1000
G1 X86.67 Y73.623 F10800
M204 S800
G1 F1200
G1 X87.792 Y72.26 E.05535
G1 X90.128 Y69.783 E.10675
G1 X92.515 Y67.57 E.10206
G1 X93.846 Y66.455 E.05444
G1 X96.446 Y64.491 E.10217
G1 X97.867 Y63.526 E.05386
G1 X99.293 Y62.627 E.05285
G1 X102.155 Y61.019 E.10293
G1 X103.687 Y60.256 E.05366
G1 X106.697 Y58.943 E.10296
G1 X108.298 Y58.339 E.05365
G1 X111.399 Y57.343 E.10212
G1 X113.078 Y56.895 E.05449
G1 X116.264 Y56.216 E.10214
G1 X117.98 Y55.94 E.0545
G1 X121.218 Y55.585 E.10213
G1 X122.954 Y55.483 E.05452
G1 X126.211 Y55.456 E.10212
G1 X127.943 Y55.528 E.05435
G1 X131.189 Y55.829 E.10221
G1 X134.548 Y56.37 E.10668
G1 X137.722 Y57.102 E.10213
G1 X139.391 Y57.577 E.05441
G1 X142.478 Y58.626 E.10223
G1 X144.09 Y59.266 E.05438
G1 X147.055 Y60.62 E.1022
G1 X148.59 Y61.417 E.05423
G1 X151.409 Y63.065 E.10238
G1 X152.856 Y64.012 E.05422
G1 X154.224 Y64.976 E.05247
G1 X156.815 Y67.004 E.10317
G1 X158.13 Y68.145 E.05459
G1 X160.504 Y70.426 E.10323
G1 X162.708 Y72.844 E.10258
G1 X163.787 Y74.155 E.05324
G1 X164.817 Y75.496 E.05302
G1 X166.683 Y78.197 E.10293
G1 X167.583 Y79.651 E.05362
G1 X169.16 Y82.511 E.1024
G1 X169.918 Y84.066 E.05424
G1 X171.203 Y87.081 E.10276
G1 X171.796 Y88.692 E.05383
G1 X172.767 Y91.803 E.10218
G1 X173.2 Y93.484 E.05443
G1 X173.852 Y96.677 E.10218
G1 X174.114 Y98.393 E.05443
G1 X174.442 Y101.638 E.10226
G1 X174.529 Y103.369 E.05434
G1 X174.529 Y106.63 E.10225
G1 X174.442 Y108.362 E.05437
G1 X174.114 Y111.606 E.10223
G1 X173.545 Y114.957 E.10657
G1 X172.786 Y118.127 E.1022
M73 P1 R83
G1 X172.297 Y119.792 E.05441
M73 Q1 S89
G1 X171.222 Y122.871 E.10225
G1 X170.568 Y124.477 E.05437
G1 X169.19 Y127.43 E.10217
G1 X168.386 Y128.948 E.05386
G1 X166.708 Y131.764 E.10278
G1 X165.76 Y133.186 E.05359
G1 X164.775 Y134.56 E.05301
G1 X162.738 Y137.121 E.1026
G1 X161.597 Y138.415 E.05409
G1 X159.305 Y140.764 E.1029
G1 X158.06 Y141.918 E.05323
G1 X155.55 Y144.02 E.10265
G1 X154.176 Y145.059 E.05401
G1 X151.469 Y146.897 E.10259
G1 X150.02 Y147.778 E.05317
G1 X147.095 Y149.36 E.10427
G1 X145.612 Y150.068 E.05153
G1 X142.525 Y151.356 E.10488
G1 X140.972 Y151.914 E.05174
G1 X137.765 Y152.886 E.10507
G1 X136.162 Y153.285 E.05179
G1 X132.888 Y153.927 E.10461
G1 X129.535 Y154.351 E.10597
G1 X126.282 Y154.543 E.10217
G1 X124.546 Y154.557 E.05443
G1 X121.29 Y154.42 E.10218
G1 X119.587 Y154.263 E.05362
G1 X117.908 Y154.05 E.05307
G1 X114.67 Y153.471 E.10314
G1 X113.008 Y153.087 E.05348
G1 X109.869 Y152.194 E.10233
G1 X108.23 Y151.637 E.05428
G1 X105.185 Y150.427 E.10274
G1 X103.622 Y149.713 E.05388
G1 X100.731 Y148.212 E.10213
G1 X99.231 Y147.335 E.05448
G1 X96.506 Y145.551 E.10212
G1 X95.103 Y144.529 E.05442
G1 X92.57 Y142.478 E.10219
G1 X91.277 Y141.32 E.05442
G1 X88.962 Y139.024 E.10223
G1 X87.794 Y137.742 E.05438
G1 X85.721 Y135.225 E.10224
G1 X83.742 Y132.462 E.10656
G1 X82.025 Y129.689 E.10226
G1 X81.19 Y128.175 E.05421
G1 X79.757 Y125.235 E.10255
G1 X79.078 Y123.645 E.05421
G1 X77.952 Y120.586 E.1022
G1 X77.443 Y118.954 E.0536
G1 X76.994 Y117.322 E.05307
G1 X76.283 Y114.116 E.10296
G1 X75.997 Y112.429 E.05365
G1 X75.615 Y109.188 E.10232
G1 X75.499 Y107.461 E.05427
G1 X75.444 Y104.178 E.10295
G1 X75.502 Y102.467 E.05368
G1 X75.776 Y99.221 E.10214
G1 X76.008 Y97.5 E.05445
G1 X76.608 Y94.291 E.10236
G1 X77.012 Y92.608 E.05427
G1 X77.929 Y89.483 E.10211
G1 X78.502 Y87.842 E.0545
G1 X79.73 Y84.825 E.10213
G1 X80.464 Y83.252 E.05443
G1 X81.991 Y80.371 E.10224
G1 X82.879 Y78.881 E.05439
G1 X84.687 Y76.168 E.10222
G1 X85.722 Y74.774 E.05444
G1 X86.632 Y73.669 E.04488
M204 S1000
G1 X86.923 Y73.908 F10800
M204 S800
G1 F1200
G1 X88.077 Y72.506 E.05693
