; generated by PrusaSlicer 2.7.1+MacOS-x64 on 2024-02-27 at 15:45:11 UTC


;
;
; 

; external perimeters extrusion width = 0.45mm
; perimeters extrusion width = 0.45mm
; infill extrusion width = 0.45mm
; solid infill extrusion width = 0.45mm
; top infill extrusion width = 0.40mm
; support material extrusion width = 0.35mm
; first layer extrusion width = 0.42mm

; external perimeters extrusion width = 0.45mm
; perimeters extrusion width = 0.45mm
; infill extrusion width = 0.45mm
; solid infill extrusion width = 0.45mm
; top infill extrusion width = 0.40mm
; support material extrusion width = 0.35mm
; first layer extrusion width = 0.42mm

; external perimeters extrusion width = 0.45mm
; perimeters extrusion width = 0.45mm
; infill extrusion width = 0.45mm
; solid infill extrusion width = 0.45mm
; top infill extrusion width = 0.40mm
; support material extrusion width = 0.35mm
; first layer extrusion width = 0.42mm

M73 P0 R77
M73 Q0 S78
M201 X1000 Y1000 Z200 E5000 ; sets maximum accelerations, mm/sec^2
M203 X200 Y200 Z12 E120 ; sets maximum feedrates, mm / sec
M204 S1250 T1250 ; sets acceleration (S) and retract acceleration (R), mm/sec^2
M205 X8.00 Y8.00 Z0.40 E4.50 ; sets the jerk limits, mm/sec
M205 S0 T0 ; sets the minimum extruding and travel feed rate, mm/sec

; printing object AlphaAxel.stl id:0 copy 0
; stop printing object AlphaAxel.stl id:0 copy 0
; printing object AlphaAxelholder.stl id:1 copy 0
; stop printing object AlphaAxelholder.stl id:1 copy 0
; printing object GammaV1.stl id:2 copy 0
; stop printing object GammaV1.stl id:2 copy 0

;TYPE:Custom
M862.3 P "MK3S" ; printer model check
M862.1 P0.4 ; nozzle diameter check
M115 U3.13.2 ; tell printer latest fw version
G90 ; use absolute coordinates
M83 ; extruder relative mode
M104 S215 ; set extruder temp
M140 S60 ; set bed temp
M190 S60 ; wait for bed temp
M109 S215 ; wait for extruder temp
G28 W ; home all without mesh bed level
G80 X75.0365 Y58.0188 W62.8777 H71.6692 ; mesh bed levelling

G1 Z0.2 F720
G1 Y-3 F1000 ; go outside print area
G92 E0
G1 X60 E9 F1000 ; intro line
G1 X100 E12.5 F1000 ; intro line

G92 E0
M221 S95

; Don't change E values below. Excessive value can damage the printer.

M907 E538 ; set extruder motor current
G21 ; set units to millimeters
G90 ; use absolute coordinates
M83 ; use relative distances for extrusion
M900 K0.05 ; Filament gcode LA 1.5
M900 K30 ; Filament gcode LA 1.0

M107
;LAYER_CHANGE
;Z:0.2
;HEIGHT:0.2
;BEFORE_LAYER_CHANGE
G92 E0.0
;0.2


G1 E-.8 F2100
G1 Z.2 F720
;AFTER_LAYER_CHANGE
;0.2
G1 X75.921 Y63.65 F10800
G1 Z.2 F720
G1 E.8 F2100
M204 S800
;TYPE:Skirt/Brim
;WIDTH:0.42
G1 F1200
G1 X78.35 Y61.221 E.10771
G1 X79.279 Y60.647 E.03424
G1 X86.232 Y58.329 E.2298
G1 X86.984 Y58.207 E.02389
G1 X97.673 Y58.207 E.33515
G1 X98.425 Y58.329 E.02389
G1 X105.379 Y60.647 E.22983
G1 X106.308 Y61.221 E.03424
G1 X108.736 Y63.65 E.10768
G1 X135.139 Y97.309 E1.34131
G1 X136.304 Y99.155 E.06844
G1 X137.136 Y101.172 E.06841
G1 X137.465 Y102.44 E.04107
G1 X137.663 Y103.735 E.04108
G1 X137.726 Y105.044 E.04109
G1 X137.649 Y106.393 E.04237
G1 X137.448 Y107.646 E.03979
G1 X137.097 Y108.951 E.04237
G1 X136.626 Y110.174 E.04109
G1 X135.897 Y111.572 E.04943
G1 X135.323 Y112.442 E.03268
G1 X125.451 Y125.766 E.51994
G1 X124.391 Y126.807 E.04658
G1 X123.201 Y127.698 E.04661
G1 X121.903 Y128.422 E.0466
G1 X120.52 Y128.967 E.04661
G1 X118.908 Y129.351 E.05196
G1 X117.35 Y129.49 E.04904
G1 X84.666 Y129.499 E1.02478
G1 X83.603 Y129.249 E.03424
G1 X78.967 Y126.931 E.16252
G1 X78.35 Y126.485 E.02387
G1 X75.921 Y124.057 E.10768
G1 X75.225 Y122.376 E.05705
G1 X75.225 Y65.331 E1.78861
G1 X75.898 Y63.705 E.05518
M73 P0 R76
M204 S1000
;WIPE_START
G1 F8640
G1 X75.921 Y63.65 E-.01377
G1 X78.328 Y61.243 E-.78623
;WIPE_END
G1 Z.6 F720
G1 X117.302 Y98.52 F10800
G1 Z.2 F720
G1 E.8 F2100
M204 S800
G1 F1200
G1 X118.008 Y97.764 E.03243
G1 X119.476 Y96.589 E.05896
G1 X120.362 Y96.07 E.0322
G1 X121.283 Y95.649 E.03175
G1 X122.23 Y95.326 E.03137
G1 X123.222 Y95.096 E.03193
G1 X124.215 Y94.968 E.03139
G1 X126.118 Y95 E.05968
G1 X127.978 Y95.389 E.05958
G1 X128.931 Y95.738 E.03182
G1 X130.618 Y96.653 E.06017
G1 X132.125 Y97.895 E.06123
G1 X133.381 Y99.432 E.06224
G1 X133.912 Y100.329 E.03268
G1 X134.348 Y101.277 E.03272
G1 X134.673 Y102.23 E.03157
G1 X135.016 Y104.044 E.05788
G1 X135.062 Y105.078 E.03245
G1 X135.002 Y106.1 E.0321
G1 X134.838 Y107.109 E.03205
G1 X134.574 Y108.094 E.03197
G1 X133.846 Y109.793 E.05796
G1 X132.747 Y111.421 E.06159
G1 X132.083 Y112.147 E.03085
G1 X131.32 Y112.83 E.03211
G1 X130.474 Y113.443 E.03276
G1 X128.722 Y114.349 E.06184
G1 X127.726 Y114.686 E.03297
G1 X126.755 Y114.908 E.03123
G1 X124.922 Y115.062 E.05767
G1 X125.363 Y116.362 E.04304
G1 X125.595 Y117.963 E.05072
G1 X125.509 Y119.635 E.05249
G1 X125.335 Y120.489 E.02733
G1 X124.898 Y121.752 E.0419
G1 X124.501 Y122.544 E.02778
G1 X123.536 Y123.909 E.05241
G1 X122.892 Y124.574 E.02903
G1 X121.717 Y125.485 E.04662
G1 X120.883 Y125.956 E.03003
G1 X120.092 Y126.298 E.02702
G1 X118.601 Y126.702 E.04844
G1 X117.661 Y126.811 E.02967
G1 X116.732 Y126.819 E.02913
G1 X115.184 Y126.599 E.04902
G1 X114.418 Y126.377 E.02501
G1 X112.942 Y125.712 E.05076
G1 X111.563 Y124.729 E.0531
G1 X110.409 Y123.491 E.05307
G1 X109.522 Y122.047 E.05314
G1 X108.943 Y120.46 E.05297
G1 X108.691 Y118.803 E.05255
G1 X108.772 Y117.116 E.05296
G1 X109.192 Y115.464 E.05345
G1 X109.951 Y113.904 E.05439
G1 X110.501 Y113.118 E.03008
G1 X111.609 Y111.96 E.05025
G1 X112.664 Y111.184 E.04106
G1 X113.465 Y110.743 E.02867
G1 X115.027 Y110.171 E.05216
G1 X116.231 Y109.96 E.03833
G1 X115.663 Y108.749 E.04194
G1 X115.12 Y106.91 E.06012
G1 X114.974 Y105.86 E.03324
G1 X114.996 Y103.912 E.06108
G1 X115.162 Y102.889 E.03249
G1 X115.743 Y101.055 E.06032
G1 X116.209 Y100.103 E.03323
G1 X117.268 Y98.569 E.05845
M204 S1000
G1 X117.578 Y98.783 F10800
M204 S800
G1 F1200
G1 X117.596 Y98.756 E.00102
G1 X118.264 Y98.041 E.03068
G1 X119.69 Y96.9 E.05726
G1 X121.431 Y95.996 E.06151
G1 X123.28 Y95.469 E.06028
G1 X125.204 Y95.318 E.06051
G1 X126.962 Y95.516 E.05547
G1 X127.875 Y95.751 E.02956
G1 X129.645 Y96.502 E.06029
G1 X131.128 Y97.501 E.05606
G1 X131.864 Y98.168 E.03114
G1 X133.071 Y99.648 E.05988
G1 X133.582 Y100.512 E.03147
G1 X133.994 Y101.409 E.03095
G1 X134.308 Y102.326 E.03039
G1 X134.641 Y104.088 E.05622
G1 X134.628 Y106.05 E.06152
G1 X134.218 Y107.971 E.06159
G1 X133.511 Y109.621 E.05628
G1 X132.451 Y111.188 E.05932
G1 X131.09 Y112.53 E.05993
G1 X130.276 Y113.122 E.03156
G1 X128.591 Y113.995 E.0595
G1 X127.614 Y114.326 E.03234
G1 X125.73 Y114.657 E.05998
G1 X124.347 Y114.653 E.04336
G1 X124.788 Y115.733 E.03658
G1 X125.151 Y117.248 E.04885
G1 X125.219 Y118.736 E.0467
G1 X125.134 Y119.588 E.02685
G1 X124.968 Y120.401 E.02602
G1 X124.546 Y121.617 E.04036
G1 X124.177 Y122.35 E.02573
G1 X123.245 Y123.669 E.05064
G1 X122.641 Y124.292 E.02721
G1 X121.507 Y125.172 E.04501
G1 X120.707 Y125.622 E.02878
G1 X119.969 Y125.941 E.02521
G1 X118.529 Y126.332 E.04678
G1 X116.757 Y126.442 E.05567
G1 X115.261 Y126.23 E.04737
G1 X114.533 Y126.017 E.02378
G1 X113.124 Y125.382 E.04846
G1 X111.808 Y124.441 E.05073
G1 X110.705 Y123.258 E.05071
G1 X109.859 Y121.877 E.05078
G1 X109.307 Y120.36 E.05062
G1 X109.067 Y118.776 E.05023
G1 X109.146 Y117.163 E.05064
G1 X109.549 Y115.586 E.05103
G1 X110.266 Y114.111 E.05142
G1 X110.793 Y113.357 E.02884
G1 X111.843 Y112.256 E.0477
G1 X112.877 Y111.495 E.04025
G1 X113.621 Y111.086 E.02662
G1 X115.13 Y110.534 E.05038
G1 X116.873 Y110.271 E.05527
G1 X116.016 Y108.617 E.05841
G1 X115.489 Y106.83 E.05842
G1 X115.351 Y105.837 E.03143
G1 X115.372 Y103.944 E.05936
G1 X115.529 Y102.976 E.03075
G1 X116.093 Y101.194 E.05861
G1 X116.535 Y100.294 E.03144
G1 X117.543 Y98.832 E.05568
M204 S1000
G1 X117.853 Y99.046 F10800
M204 S800
G1 F1200
G1 X117.89 Y98.992 E.00205
G1 X118.52 Y98.318 E.02893
G1 X119.904 Y97.211 E.05557
G1 X121.578 Y96.344 E.05911
G1 X123.356 Y95.838 E.05796
G1 X124.274 Y95.72 E.02902
G1 X126.017 Y95.748 E.05466
G1 X127.771 Y96.114 E.05618
G1 X128.637 Y96.432 E.02893
G1 X130.183 Y97.269 E.05512
G1 X131.604 Y98.441 E.05775
G1 X132.212 Y99.116 E.02848
G1 X133.244 Y100.679 E.05873
G1 X133.944 Y102.422 E.05889
G1 X134.267 Y104.132 E.05456
G1 X134.307 Y105.073 E.02953
G1 X134.105 Y106.933 E.05866
G1 X133.554 Y108.668 E.05708
G1 X132.704 Y110.223 E.05556
G1 X131.54 Y111.623 E.05709
G1 X130.846 Y112.243 E.02918
G1 X129.273 Y113.269 E.05888
G1 X127.52 Y113.96 E.05908
G1 X126.624 Y114.165 E.02882
G1 X124.908 Y114.308 E.05399
G1 X123.674 Y114.235 E.03876
G1 X124.11 Y115.07 E.02954
G1 X124.626 Y116.523 E.04835
G1 X124.842 Y118.014 E.04724
G1 X124.763 Y119.522 E.04735
G1 X124.608 Y120.289 E.02453
G1 X124.194 Y121.481 E.03956
G1 X123.845 Y122.172 E.02427
G1 X122.954 Y123.428 E.04828
G1 X122.39 Y124.011 E.02543
G1 X121.298 Y124.858 E.04333
G1 X120.547 Y125.28 E.02701
G1 X119.845 Y125.585 E.024
G1 X118.457 Y125.962 E.0451
G1 X116.781 Y126.066 E.05265
G1 X115.338 Y125.861 E.0457
G1 X114.664 Y125.664 E.02202
G1 X113.307 Y125.052 E.04667
G1 X112.052 Y124.154 E.04839
G1 X111.002 Y123.025 E.04834
G1 X110.196 Y121.708 E.04841
G1 X109.67 Y120.261 E.04827
G1 X109.443 Y118.75 E.04791
G1 X109.52 Y117.211 E.04831
G1 X109.906 Y115.708 E.04865
G1 X110.581 Y114.319 E.04842
G1 X111.084 Y113.596 E.02762
G1 X112.077 Y112.552 E.04518
G1 X113.07 Y111.819 E.0387
G1 X113.794 Y111.422 E.02589
G1 X115.216 Y110.901 E.04748
G1 X116.693 Y110.67 E.04687
G1 X117.619 Y110.66 E.02904
G1 X116.73 Y109.272 E.05168
G1 X116.077 Y107.651 E.05479
G1 X115.857 Y106.75 E.02908
G1 X115.692 Y104.888 E.05861
G1 X115.896 Y103.063 E.05758
G1 X116.444 Y101.334 E.05687
G1 X116.86 Y100.485 E.02964
G1 X117.819 Y99.095 E.05295
M204 S1000
G1 X118.129 Y99.309 F10800
M204 S800
G1 F1200
G1 X118.184 Y99.229 E.00304
G1 X118.776 Y98.594 E.02722
G1 X120.118 Y97.521 E.05387
G1 X120.907 Y97.062 E.02862
G1 X122.566 Y96.407 E.05592
G1 X123.431 Y96.208 E.02783
G1 X125.174 Y96.071 E.05482
G1 X126.826 Y96.258 E.05213
G1 X127.667 Y96.477 E.02725
G1 X129.269 Y97.156 E.05456
G1 X130.664 Y98.095 E.05273
G1 X131.343 Y98.713 E.02879
G1 X132.452 Y100.079 E.05517
G1 X133.287 Y101.672 E.05639
G1 X133.579 Y102.518 E.02806
G1 X133.892 Y104.175 E.05287
G1 X133.878 Y105.968 E.05622
G1 X133.505 Y107.724 E.05629
G1 X132.857 Y109.245 E.05184
G1 X131.859 Y110.719 E.05581
G1 X130.603 Y111.955 E.05525
G1 X129.108 Y112.93 E.05596
G1 X127.427 Y113.595 E.05668
G1 X125.654 Y113.907 E.05645
G1 X124.036 Y113.879 E.05074
G1 X122.817 Y113.684 E.03871
G1 X123.474 Y114.669 E.03712
G1 X124.07 Y115.964 E.0447
G1 X124.406 Y117.373 E.04542
G1 X124.465 Y118.717 E.04218
G1 X124.247 Y120.178 E.04632
G1 X123.842 Y121.345 E.03873
G1 X123.139 Y122.583 E.04464
G1 X122.139 Y123.729 E.04769
G1 X121.088 Y124.545 E.04172
G1 X120.372 Y124.946 E.02573
G1 X119.722 Y125.228 E.02222
G1 X118.386 Y125.591 E.04341
G1 X116.805 Y125.69 E.04967
G1 X115.415 Y125.491 E.04403
G1 X114.796 Y125.31 E.02022
G1 X113.49 Y124.722 E.04491
G1 X112.297 Y123.867 E.04602
G1 X111.299 Y122.793 E.04597
G1 X110.534 Y121.54 E.04603
G1 X110.034 Y120.162 E.04596
G1 X109.819 Y118.725 E.04556
G1 X109.894 Y117.259 E.04603
G1 X110.263 Y115.831 E.04624
G1 X110.906 Y114.51 E.04607
G1 X111.376 Y113.835 E.02579
G1 X112.33 Y112.832 E.0434
G1 X113.283 Y112.13 E.03711
G1 X114.635 Y111.475 E.0471
G1 X115.981 Y111.126 E.0436
G1 X117.443 Y111.039 E.04592
G1 X118.51 Y111.129 E.03357
G1 X117.508 Y109.862 E.05065
G1 X117.069 Y109.106 E.02741
G1 X116.436 Y107.535 E.05311
G1 X116.23 Y106.688 E.02733
G1 X116.102 Y105.77 E.02906
G1 X116.122 Y104.028 E.05462
G1 X116.266 Y103.132 E.02845
G1 X116.794 Y101.474 E.05456
G1 X117.185 Y100.675 E.02789
G1 X118.094 Y99.358 E.05017
M204 S1000
G1 X118.403 Y99.571 F10800
M204 S800
G1 F1200
G1 X118.466 Y99.48 E.00347
G1 X119.046 Y98.859 E.02664
G1 X120.316 Y97.842 E.05101
G1 X121.072 Y97.401 E.02744
G1 X122.66 Y96.772 E.05355
G1 X124.333 Y96.472 E.05329
G1 X125.917 Y96.496 E.04967
G1 X127.562 Y96.839 E.05269
G1 X128.358 Y97.133 E.02661
G1 X129.748 Y97.886 E.04957
G1 X131.082 Y98.985 E.05419
G1 X132.143 Y100.294 E.05283
G1 X132.576 Y101.029 E.02675
G1 X133.214 Y102.615 E.0536
G1 X133.517 Y104.218 E.05115
G1 X133.553 Y105.085 E.02721
G1 X133.367 Y106.777 E.05337
G1 X132.861 Y108.372 E.05247
G1 X132.079 Y109.801 E.05108
G1 X130.998 Y111.098 E.05294
G1 X129.667 Y112.169 E.05357
G1 X128.165 Y112.947 E.05304
G1 X126.475 Y113.426 E.05508
G1 X124.934 Y113.554 E.04848
G1 X123.219 Y113.367 E.05409
G1 X122.024 Y113.009 E.03911
G1 X121.86 Y113.266 E.00956
G1 X122.687 Y114.17 E.03842
G1 X123.146 Y114.853 E.0258
G1 X123.711 Y116.081 E.04238
G1 X124.034 Y117.435 E.04364
G1 X124.089 Y118.69 E.03939
G1 X123.88 Y120.091 E.04441
G1 X123.5 Y121.186 E.03634
G1 X122.836 Y122.358 E.04224
G1 X121.888 Y123.448 E.04529
G1 X120.879 Y124.231 E.04004
G1 X120.212 Y124.604 E.02396
G1 X119.598 Y124.872 E.02101
G1 X118.315 Y125.221 E.04169
G1 X117.531 Y125.308 E.02473
G1 X116.284 Y125.266 E.03912
G1 X115.493 Y125.122 E.02521
G1 X114.18 Y124.658 E.04366
G1 X112.985 Y123.942 E.04368
G1 X111.971 Y123.017 E.04303
G1 X111.138 Y121.877 E.04427
G1 X110.572 Y120.649 E.0424
G1 X110.249 Y119.296 E.04361
G1 X110.196 Y118.021 E.04001
G1 X110.269 Y117.307 E.0225
G1 X110.619 Y115.955 E.04379
G1 X111.231 Y114.702 E.04372
G1 X112.072 Y113.605 E.04334
G1 X112.583 Y113.112 E.02226
G1 X113.476 Y112.455 E.03476
G1 X114.105 Y112.109 E.02251
G1 X115.405 Y111.631 E.04343
G1 X116.755 Y111.422 E.04283
G1 X117.982 Y111.462 E.03849
G1 X119.29 Y111.753 E.04201
G1 X119.436 Y111.493 E.00935
G1 X118.334 Y110.361 E.04953
G1 X117.399 Y108.924 E.05375
G1 X116.8 Y107.437 E.05026
G1 X116.598 Y106.608 E.02675
G1 X116.478 Y105.747 E.02726
G1 X116.497 Y104.06 E.0529
G1 X116.637 Y103.202 E.02726
G1 X117.137 Y101.632 E.05166
G1 X117.52 Y100.85 E.0273
G1 X118.369 Y99.62 E.04686
M204 S1000
;WIPE_START
G1 F8640
G1 X118.403 Y99.571 E-.01377
G1 X118.466 Y99.48 E-.02556
G1 X119.046 Y98.859 E-.19621
G1 X120.316 Y97.842 E-.37568
G1 X121.022 Y97.43 E-.18878
;WIPE_END
G1 Z.6 F720
G1 X117.431 Y111.794 F10800
G1 Z.2 F720
G1 E.8 F2100
M204 S800
G1 F1200
G1 X118.714 Y111.977 E.04063
G1 X119.955 Y112.418 E.04129
G1 X121.083 Y113.098 E.0413
G1 X122.04 Y113.974 E.04068
G1 X122.826 Y115.054 E.04188
G1 X123.359 Y116.216 E.04008
G1 X123.662 Y117.497 E.04127
G1 X123.711 Y118.68 E.03712
G1 X123.513 Y120.004 E.04197
G1 X123.157 Y121.027 E.03396
G1 X122.533 Y122.133 E.03982
G1 X121.624 Y123.179 E.04345
G1 X120.671 Y123.916 E.03777
G1 X119.475 Y124.515 E.04194
G1 X118.245 Y124.85 E.03997
G1 X116.852 Y124.937 E.04376
G1 X115.57 Y124.753 E.04061
G1 X114.329 Y124.312 E.04129
G1 X113.201 Y123.632 E.0413
G1 X112.244 Y122.756 E.04068
G1 X111.457 Y121.676 E.0419
G1 X110.925 Y120.515 E.04004
G1 X110.621 Y119.234 E.04128
G1 X110.572 Y118.05 E.03716
G1 X110.789 Y116.659 E.04414
G1 X111.247 Y115.448 E.04059
G1 X111.972 Y114.298 E.04262
G1 X112.817 Y113.408 E.03848
G1 X113.689 Y112.766 E.03395
G1 X114.894 Y112.184 E.04196
G1 X116.081 Y111.873 E.03847
G1 X117.371 Y111.797 E.04052
M204 S1000
G1 X117.358 Y112.192 F10800
M204 S800
G1 F1200
G1 X117.883 Y112.21 E.01647
G1 X119.094 Y112.481 E.03891
G1 X120.227 Y112.988 E.03892
G1 X121.236 Y113.71 E.0389
G1 X122.082 Y114.619 E.03893
G1 X122.729 Y115.678 E.03891
G1 X123.152 Y116.845 E.03892
G1 X123.334 Y118.063 E.03861
G1 X123.274 Y119.281 E.03824
G1 X123.146 Y119.917 E.02034
G1 X122.815 Y120.869 E.0316
G1 X122.532 Y121.428 E.01965
G1 X121.817 Y122.438 E.0388
G1 X120.909 Y123.289 E.03902
G1 X119.861 Y123.937 E.03863
G1 X118.696 Y124.367 E.03894
G1 X117.468 Y124.556 E.03896
G1 X116.4 Y124.52 E.03351
G1 X115.189 Y124.249 E.03891
G1 X114.056 Y123.743 E.03891
G1 X113.047 Y123.02 E.03892
G1 X112.202 Y122.111 E.03891
G1 X111.555 Y121.052 E.03891
G1 X111.131 Y119.886 E.0389
G1 X110.949 Y118.667 E.03864
G1 X111.014 Y117.423 E.03906
M73 P1 R76
G1 X111.156 Y116.746 E.02169
G1 X111.589 Y115.606 E.03824
G1 X112.275 Y114.522 E.04022
G1 X113.07 Y113.688 E.03613
G1 X113.881 Y113.09 E.03159
G1 X114.434 Y112.788 E.01976
G1 X115.595 Y112.361 E.03879
G1 X116.816 Y112.174 E.03873
G1 X117.298 Y112.19 E.01512
M204 S1000
